!!!COM: Bach, Johann Sebastian
!!!OTL@@DE: 305. Wie s&ouml;chn leuchtet der Morgenstern
!!!OTL@EN: How brightly shines the morning star
!!!SCA: BWV 36.4
**harm	**root	**kern	**kern	**kern	**kern
*staff2	*	*staff2	*staff2	*staff1	*staff1
*Iorgan	*Iorgan	*Iorgan	*Iorgan	*Iorgan	*Iorgan
*>[A,A,B]	*>[A,A,B]	*>[A,A,B]	*>[A,A,B]	*>[A,A,B]	*>[A,A,B]
*>norep[A,B]	*>norep[A,B]	*>norep[A,B]	*>norep[A,B]	*>norep[A,B]	*>norep[A,B]
*>A	*>A	*>A	*>A	*>A	*>A
!	!	!bass	!tenor	!alto	!sprno
*	*	*clefF4	*clefF4	*clefG2	*clefG2
*k[f#c#g#d#a#e#]	*k[f#c#g#d#a#e#]	*k[f#c#g#d#a#e#]	*k[f#c#g#d#a#e#]	*k[f#c#g#d#a#e#]	*k[f#c#g#d#a#e#]
*F#:	*F#:	*F#:	*F#:	*F#:	*F#:
*met(c)	*met(c)	*met(c)	*met(c)	*met(c)	*met(c)
*M4/4	*M4/4	*M4/4	*M4/4	*M4/4	*M4/4
*MM60	*MM60	*MM60	*MM60	*MM60	*MM60
I	4DD	4F#	4A#	4c#	4f#
=1	=1	=1	=1	=1	=1
Vb	4AA	4E#	4G#	4c#	4cc#
I	8DD	8F#L	8F#L	4c#	8a#L
Vb	8AA	8E#J	8G#J	.	8g#J
vi	4BB	4D#	8A#L	4d#	4f#
.	.	.	8B#J	.	.
iii	4FF#	8A#L	4c#	4e#	4cc#
.	.	8G#J	.	.	.
=2	=2	=2	=2	=2	=2
vi7	4BB	8F#L	4c#	4a#	8.dd#L
.	.	8D#J	.	.	.
.	.	.	.	.	32ee#LL
.	.	.	.	.	32ff#JJJ
V/V	4EE	4G#	4B#	4g#	8ee#L
.	.	.	.	.	8dd#J
V;	4AA;	4C#;	4e#;	4g#;	4cc#;
I	4DD	4F#	4f#	4a#	4cc#
=3	=3	=3	=3	=3	=3
IV	4GG	4B	4f#	4b	4dd#
viiob	4CC#	8A#L	4g#	4b	4ee#
.	.	8G#J	.	.	.
Ib	4DD	8A#L	8c#L	4a#	4ff#
.	.	8B#J	8d#J	.	.
V	4AA	4c#	4e#	8g#L	4ee#
.	.	.	.	8cc#J	.
=4	=4	=4	=4	=4	=4
vi7b	8BB	4F#	8A#L	4cc#	8dd#L
I	8DD	.	8a#J	.	8ff#J
V7/V	4EE	4G#	8g#L	4b#	8ee#L
.	.	.	8f#J	.	8dd#J
V;	4AA;	4C#;	4e#;	4g#;	4cc#;
I	4DD	4F#	4c#	4f#	4a#
=5	=5	=5	=5	=5	=5
IV	4GG	4B	4B	4f#	4dd#
Ib	4DD	4A#	4c#	4f#	4cc#
viio7b	4CC#	4G#	8d#L	8f#L	4b
.	.	.	8BJ	8e#J	.
I	4DD	4F#	4c#	4f#	4a#
=6	=6	=6	=6	=6	=6
V7	2AA	2C#	4.c#	4f#	2g#
.	.	.	.	4e#	.
.	.	.	8B	.	.
I;	4DD;	4F#;	4A#;	4c#;	4f#;
=7:|!	=7:|!	=7:|!	=7:|!	=7:|!	=7:|!
!!linebreak: 2
*>B	*>B	*>B	*>B	*>B	*>B
Vb	2AA	2E#	2c#	2g#	2cc#
I;	2DD;	2F#;	2c#;	2f#;	2a#;
=8	=8	=8	=8	=8	=8
V	2AA	2C#	2e#	2g#	2cc#
I;	2DD;	2F#;	2c#;	2f#;	2a#;
=9	=9	=9	=9	=9	=9
I	4DD	8F#L	4c#	4f#	4a#
.	.	8G#	.	.	.
Ib	4DD	8A#	4c#	4f#	4a#
.	.	8BJ	.	.	.
V	4AA	8c#L	4c#	4e#	4g#
.	.	8d#	.	.	.
V	4AA	8c#	4c#	4e#	4g#
.	.	8BJ	.	.	.
=10	=10	=10	=10	=10	=10
Ib	4DD	8A#L	4c#	4f#	4a#
.	.	8G#	.	.	.
I	4DD	8A#	4c#	4f#	4a#
.	.	8F#J	.	.	.
V	4AA	8C#L	4c#	4e#	4g#
.	.	8c#	.	.	.
viiob/II	4DD#	8B	4c#	4f##	4a#
.	.	8A#J	.	.	.
=11	=11	=11	=11	=11	=11
ii	4EE	4G#	8d#L	4g#	4b
.	.	.	8e#J	.	.
vi	4BB	8d#L	4f#	8f#L	4a#
.	.	8c#J	.	8e#J	.
ii7b	4EE	4B	8f#L	4d#	2g#
.	.	.	16e#L	.	.
.	.	.	16d#JJ	.	.
V7	4AA	4c#	8c#L	4e#	.
.	.	.	8BJ	.	.
=12	=12	=12	=12	=12	=12
I;	2DD;	2F#;	2A#;	2c#;	2f#;
vi	4BB	4D#	8A#L	4a#	4ff#
.	.	.	8B#J	.	.
V/VI	4FF#	4AA#	4c##	8a#L	4ee#
.	.	.	.	8g#J	.
=13	=13	=13	=13	=13	=13
IV	4GG	4BB	4d#	8f#L	4dd#
.	.	.	.	8g#J	.
iiib	4FF#	4C#	4e#	[4a#	4cc#
IV7	8GG	8D#L	8f#L	8a#]	4b
viio	8CC#	8E#J	8g#J	4g#	.
I	4DD	4F#	4c#	.	4a#
.	.	.	.	[8f#	.
=14	=14	=14	=14	=14	=14
ii	4EE	4BB	4d#	8f#L]	2g#
.	.	.	.	16e#L	.
.	.	.	.	16d#JJ	.
V7	4AA	4C#	8c#L	4e#	.
.	.	.	8BJ	.	.
I;	4DD;	4FF#;	4A#;	4c#;	4f#;
==	==	==	==	==	==
*-	*-	*-	*-	*-	*-
!!!ENC: Craig Stuart Sapp
!!!END: 2004/12/06/
!!chor2scor: -l 2 -s 0.6 -o %b.pmx!!chor2scor: -l 2 -s 0.6 -o %b.pmx
